X:1
T:Es Kommt ein Schiff
T:German, 1608
T:Es Kommt ein Schiff
T:Public Domain
C:German, 1608
Z:Public Domain
%%score 1 2 3
L:1/8
M:3/4
K:F
V:1 treble 
V:2 bass 
V:3 bass 
V:1
 DD- DD [_DE]2 | [_DE][=DF]- [DF]G [EA]2 | [FA][EG]- [EG][DG] [B,D]2 | [CE][CF]- [CF]4 | %4
 [CF][FA]- [FA][Fc] [Fd]2 | [Fd][Fc]- [Fc]/[GB]/[FA]/[EG]/ [DF]2 | [DG][FA]- [FA][EG] [DF][_DE]- | %7
 [DE]=D- D4- | D2 z4 |] %9
V:2
 [D,A,][D,A,]- [D,A,][D,A,] A,2 | A,[D,A,]- [D,A,]D _D2 | CC- CG, G,2 | G,A,- A,4 | %4
 [F,A,][F,C]- [F,C]A, B,2 | B,C- C/D/C/B,/ [D,A,]2 | B,C- CC [D,A,]A,- | A,[D,_G,]- [D,G,]4- | %8
 [D,G,]2 z4 |] %9
V:3
 z4 A,,2 | A,,2 z B,, A,,2 | F,,C,- C,B,, G,,2 | C,F,,- F,,4 | z3 F,, B,,2 | %5
 B,,A,,- A,,/B,,/C, z2 | G,,F,,- F,,C, z A,,- | A,,2 z4 | z6 |] %9

